X:1
T:Title
%%score { ( 1 3 ) | 2 }
L:1/8
Q:1/4=92
M:2/4
K:A
V:1 treble nm="Grand Piano"
V:3 treble 
V:2 treble 
V:1
 ce AA | Bc z C | [A,DF][A,EA] [DEG][CEA] | B4 | ce AA | [GB][Gc] A2 | F[FA] [EG]>[DB] | [CA]4 | %8
w: J.~W.~Pratt * * *||||||||
 BB BA | GA [GB]2 | cA dc | z2 B2[K:bass] | [Ec][Ee] [Ed][Ec] | [FB][Fc] [Fd]2 | %14
w: ||||||
 [CEA][B,EG] [EAc]>[DGB] | [CA]4 |] %16
w: ||
V:2
 [A,EA][A,CA] [A,CE][A,CE] | [A,DE][K:bass][A,E] [A,C]A, | D,C, B,,A,, | [E,G,E]4 | %4
 [A,E][A,CE] [A,CE][A,CE] | [E,D][E,E] [F,CF]2 | [D,D][D,D] [E,B,]>[E,G,] | [A,,A,]4 | %8
 [E,G,E][E,G,E] [E,G,D][E,A,C] | [E,DE][E,CE] [E,B,]2 | [A,E][A,CE] [G,B,E][A,E] | %11
 [E,A,E][D,G,E] .[E,G,E]2 | [A,,A,][C,A,] [B,,G,][C,A,] | [D,A,][C,^A,] [B,,B,]2 | E,E, E,>E, | %15
 A,,4 |] %16
V:3
 x4 | z2 E2 | x4 | x4 | x4 | x4 | x4 | x4 | x4 | x4 | x4 | cB z/[K:bass] D,/C,/B,,/ | x4 | x4 | %14
 x4 | x4 |] %16

